build/img/telegram.svg

<svg width="24" height="24" fill="none" xmlns="http://www.w3.org/2000/svg">
  <path d="M9.63262 14.8632l-.36392 5.0256c.52068 0 .7462-.2196 1.0166-.4833l2.4411-2.2905 5.0583 3.6369c.9277.5076 1.5813.2403 1.8316-.8379l3.3202-15.27474.0009-.0009c.2943-1.3464-.4959-1.87289-1.3997-1.5426L2.02135 10.4316c-1.331944.5076-1.311777 1.2366-.22642 1.5669l4.98954 1.5237L18.3742 6.40235c.5454-.3546 1.0413-.1584.6334.1962L9.63262 14.8632z" fill="#000" opacity=".16"/>
</svg>

<svg width="24" height="24" viewBox="0 0 24 24" fill="none" xmlns="http://www.w3.org/2000/svg">
<g opacity="0.16">
<path d="M9.63262 14.8632L9.2687 19.8888C9.78938 19.8888 10.0149 19.6692 10.2853 19.4055L12.7264 17.115L17.7847 20.7519C18.7124 21.2595 19.366 20.9922 19.6163 19.914L22.9365 4.63926L22.9374 4.63836C23.2317 3.29196 22.4415 2.76547 21.5377 3.09576L2.02135 10.4316C0.689406 10.9392 0.709573 11.6682 1.79493 11.9985L6.78447 13.5222L18.3742 6.40235C18.9196 6.04775 19.4155 6.24395 19.0076 6.59855L9.63262 14.8632Z" fill="black"/>
</g>
</svg>
